public/icons/picto-check.svg

<svg fill="none" height="33" viewBox="0 0 33 33" width="33" xmlns="http://www.w3.org/2000/svg" xmlns:xlink="http://www.w3.org/1999/xlink"><clipPath id="a"><path d="m0 0h32.9v32.9h-32.9z"/></clipPath><g clip-path="url(#a)"><path d="m31.6439 22.7492c3.4767-8.3935-.5091-18.01621-8.9027-21.49292-8.3935-3.47672-18.01622.50914-21.49293 8.90262-3.47671 8.3936.50916 18.0163 8.90273 21.493 8.3935 3.4767 18.0162-.5091 21.4929-8.9027z" fill="#f7ffe9"/><path d="m5.06971 16.84 8.50999 8.5c.266.2638.6254.4118 1 .4118s.7341-.148 1-.4118l.42-.42 1.11-1.11 9.86-9.86c.2638-.266.4119-.6254.4119-1s-.1481-.7341-.4119-1l-1.43-1.44c-.2684-.2591-.6269-.4038-1-.4038s-.7316.1447-1 .4038l-8.85 8.85-6.05999-6.06c-.26596-.2638-.6254-.4118-1-.4118-.37461 0-.73404.148-1 .4118l-1.53 1.53c-.2661.265-.41816.6234-.42377.9989-.0056.3755.1357.7383.39377 1.0111z" fill="#ffa904"/></g></svg>

<svg width="33" height="33" viewBox="0 0 33 33" fill="none" xmlns="http://www.w3.org/2000/svg">
<g clip-path="url(#clip0_5498_14805)">
<path d="M31.6439 22.7492C35.1206 14.3557 31.1348 4.73299 22.7412 1.25628C14.3477 -2.22044 4.72498 1.76542 1.24827 10.1589C-2.22844 18.5525 1.75743 28.1752 10.151 31.6519C18.5445 35.1286 28.1672 31.1428 31.6439 22.7492Z" fill="#F7FFE9"/>
<path d="M5.06971 16.84L13.5797 25.34C13.8457 25.6038 14.2051 25.7518 14.5797 25.7518C14.9543 25.7518 15.3138 25.6038 15.5797 25.34L15.9997 24.92L17.1097 23.81L26.9697 13.95C27.2335 13.684 27.3816 13.3246 27.3816 12.95C27.3816 12.5754 27.2335 12.2159 26.9697 11.95L25.5397 10.51C25.2713 10.2509 24.9128 10.1062 24.5397 10.1062C24.1666 10.1062 23.8081 10.2509 23.5397 10.51L14.6897 19.36L8.62971 13.3C8.36375 13.0362 8.00431 12.8882 7.62971 12.8882C7.2551 12.8882 6.89567 13.0362 6.62971 13.3L5.09971 14.83C4.83361 15.095 4.68155 15.4534 4.67594 15.8289C4.67034 16.2044 4.81164 16.5672 5.06971 16.84Z" fill="#FFA904"/>
</g>
<defs>
<clipPath id="clip0_5498_14805">
<rect width="32.9" height="32.9" fill="white"/>
</clipPath>
</defs>
</svg>
